Yaru++/mimetypes/48/application-x-virtualbox-vhd.svg

<svg height="48" viewBox="0 0 12.699375 12.699376" width="48" xmlns="http://www.w3.org/2000/svg" xmlns:xlink="http://www.w3.org/1999/xlink"><linearGradient id="a" gradientUnits="userSpaceOnUse" x1="6.35044408" x2="6.35044408" y1=".13228552" y2="12.30252024"><stop offset="0" stop-color="#fff"/><stop offset=".125" stop-color="#fff" stop-opacity=".098039"/><stop offset=".92500001" stop-color="#fff" stop-opacity=".098039"/><stop offset="1" stop-opacity=".498039"/></linearGradient><linearGradient id="b" gradientTransform="matrix(0 -.02997086 -.02997 0 15.739287 13.625372)" gradientUnits="userSpaceOnUse" x1="512" x2="-.000001" y1="397.99393" y2="125.99394"><stop offset="0" stop-color="#0e01d7"/><stop offset="1" stop-color="#3e32fe"/></linearGradient><path d="m4.1621983.39685646c-.5881821 0-1.0513178.0135407-1.4323996.0775109-.3810844.06396888-.6929229.18395548-.9213476.41184078-.2284221.22788546-.3489841.53958346-.4123567.92082876-.0633725.3812456-.0757438.8453924-.07286 1.4349839v3.239953 3.2415035c-.00286.5886857.00955 1.0525967.07286 1.4334327.063373.381246.1839346.692944.4123567.920829.2284247.227885.5402632.347873.9213476.411841.3810845.06397.8442175.07751 1.4323996.07751h4.3757445c.5881822 0 1.0510744-.01352 1.4313674-.07751.3802938-.064.6911798-.18439.9187598-.412357.227584-.227967.347434-.539443.411325-.920313.06389-.380867.07751-.844073.07751-1.4334327v-3.2415035-3.2415031c0-.5893606-.01362-1.0525645-.07751-1.4334338-.063891-.3808691-.183741-.6923443-.411325-.92031206-.22758-.2279676-.538466-.3483608-.9187598-.4123575-.380293-.0639969-.8431852-.07751088-1.4313674-.07751088z" opacity=".1"/><path d="m4.1621983.13228614c-.5880975 0-1.0515929.0141042-1.4323996.0780276-.3812749.06400116-.692825.18385575-.9213476.4118408-.2285623.2280265-.3489577.53890086-.4123567.92031206-.0633143.3808966-.0757438.8449217-.07286 1.4344672v3.2404697 3.2415028c-.00286.5889347.00958 1.0528017.07286 1.4334337.063399.381412.1837917.692285.4123567.920313.2285252.227983.54007.347839.9213476.411841.3808067.06392.8443021.07803 1.4323996.07803h4.3757445c.5880922 0 1.0508334-.01408 1.4308494-.07803.3804408-.06402.6914778-.183652.9192778-.411841.227724-.228107.347405-.539258.411325-.920313.06386-.38069.07751-.844227.07751-1.4334337v-3.2415028-3.2415031c0-.5892071-.01365-1.0527452-.07751-1.4334338-.06392-.3810543-.183601-.69220356-.411325-.92031206-.2278-.22818692-.538837-.34781901-.9192778-.41184079-.380016-.06395009-.8427572-.07802761-1.4308494-.07802761z" fill="url(#b)"/><path d="m4.162574.2645713c-.5859201 0-1.0443173.0144588-1.4106969.0759605-.3663796.06150098-.6470094.17311844-.8495194.37515254-.2025101.2020341-.3142567.48213756-.3751528.84848516-.0608962.3663479-.0741829.8250345-.0713096 1.4122476v3.2409864 3.2415028c-.00286.5869057.010424 1.0455177.07131 1.4117307.060896.366348.17264.646451.3751527.848485s.4831372.313651.8495195.375153c.3663796.0615.8247768.07596 1.4106969.07596h4.3757445c.5859174 0 1.0436077-.01445 1.4091467-.07596.3655384-.06151.6457214-.173077.8474534-.375153.201732-.202073.313211-.482325.374634-.848485.06142-.36616.07545-.82463.07545-1.4117307v-3.2415028-3.2415031c0-.5871009-.01402-1.0455706-.07545-1.4117309-.061424-.3661603-.172903-.64641086-.374635-.84848516s-.481915-.31363859-.8474528-.37515252c-.365539-.06151366-.8232293-.07596052-1.4091467-.07596052z" fill="none" opacity=".3" stroke="url(#a)" stroke-width=".26457"/><path d="m1.3232344 4.3654113h2.6146956l.8684256 3.0877367 1.1482564-4.0526538.8238826 2.2216261.8261235-2.2216261.9732536 2.8169093h2.7990343" fill="none" stroke="#fff" stroke-width=".529141"/><g fill="#fff"><path d="m1.5878047 6.2174035v3.2415028c-.011456 2.3393387.2397775 2.5790447 2.5743936 2.5790447h4.3757445c2.3346162 0 2.5743932-.23968 2.5743932-2.5790447v-3.2415028z" opacity=".08"/><path d="m6.3500706.39685646v11.64109454h2.1878722c2.3346162 0 2.5743932-.23968 2.5743932-2.5790447v-3.2415028-3.2415031c0-2.33936516-.239777-2.57904394-2.5743932-2.57904394z" opacity=".08"/><g enable-background="new" stroke-width=".26457"><path d="m5.5769859 9.4462187q-.0963036.3605211-.2271777.6914103-.1284048.330889-.2494016.592638h-.2074232q-.1209968-.261749-.2518709-.592638-.1284048-.3308892-.2247084-.6914103h.2469323q.029632.1209968.069141.2592789.041978.1358127.086426.2716255.046917.1333439.093834.2592789.046917.125935.088896.224708.041978-.09877.088896-.224708.046917-.125935.091365-.2592789.046917-.1358128.086426-.2716255.041978-.1382821.07161-.2592789z"/><path d="m5.8140382 10.730267v-1.8766858l.2296471-.0395092v.6568399q.064202-.024693.1358127-.03704.07408-.014816.1456901-.014816.153098 0 .2543402.044448.1012423.041979.160506.1209968.061733.076549.086426.1851993.024693.1086502.024693.239524v.721043h-.2296465v-.671656q0-.1185278-.017285-.2024847-.014816-.083957-.051856-.1358128-.03704-.051856-.098773-.07408-.061733-.024693-.1530981-.024693-.03704 0-.076549.00494-.039509.00494-.076549.012347-.034571.00494-.064202.012347-.027163.00741-.039509.012347v1.0667479z"/><path d="m8.0537119 9.7178442q-.041978-.03457-.1209969-.066672-.079018-.032101-.1728526-.032101-.098773 0-.1703833.03704-.069141.03457-.1135888.098773-.044448.061733-.064202.1481594-.019755.086426-.019755.1851996 0 .224708.1111195.348174.1111196.120997.2963188.120997.093834 0 .1555673-.0074.064202-.0099.098773-.01975zm0-.864263.229647-.039509v1.879155q-.079018.02222-.2024845.04445-.1234661.02222-.2839721.02222-.1481594 0-.2666869-.04692-.1185275-.04692-.2024845-.133343-.083957-.08643-.1308741-.209893-.044448-.125935-.044448-.281502 0-.1481598.03704-.2716259.039509-.1234662.1135889-.2123618.07408-.088896.1802606-.1382821.1086502-.049386.2469323-.049386.1111195 0 .1950765.029632.086426.029632.1284048.056794z"/></g></g></svg>

<?xml version="1.0" encoding="UTF-8" standalone="no"?>
<svg
   xmlns:dc="http://purl.org/dc/elements/1.1/"
   xmlns:cc="http://creativecommons.org/ns#"
   xmlns:rdf="http://www.w3.org/1999/02/22-rdf-syntax-ns#"
   xmlns:svg="http://www.w3.org/2000/svg"
   xmlns="http://www.w3.org/2000/svg"
   xmlns:xlink="http://www.w3.org/1999/xlink"
   xmlns:sodipodi="http://sodipodi.sourceforge.net/DTD/sodipodi-0.dtd"
   xmlns:inkscape="http://www.inkscape.org/namespaces/inkscape"
   height="48"
   viewBox="0 0 12.699375 12.699376"
   width="48"
   version="1.1"
   id="svg33"
   sodipodi:docname="application-x-virtualbox-vhd.svg"
   inkscape:version="0.92.5 (2060ec1f9f, 2020-04-08)">
  <metadata
     id="metadata39">
    <rdf:RDF>
      <cc:Work
         rdf:about="">
        <dc:format>image/svg+xml</dc:format>
        <dc:type
           rdf:resource="http://purl.org/dc/dcmitype/StillImage" />
        <dc:title></dc:title>
      </cc:Work>
    </rdf:RDF>
  </metadata>
  <defs
     id="defs37">
    <linearGradient
       gradientTransform="matrix(0.26457032,0,0,0.26457032,-84.661746,-16.006504)"
       inkscape:collect="always"
       xlink:href="#linearGradient927-3-6"
       id="linearGradient925"
       x1="344"
       y1="61"
       x2="344"
       y2="107"
       gradientUnits="userSpaceOnUse" />
    <linearGradient
       inkscape:collect="always"
       id="linearGradient927-3-6">
      <stop
         style="stop-color:#ffffff;stop-opacity:1;"
         offset="0"
         id="stop923-3" />
      <stop
         id="stop933-5"
         offset="0.125"
         style="stop-color:#ffffff;stop-opacity:0.09803922" />
      <stop
         id="stop931-6"
         offset="0.92500001"
         style="stop-color:#ffffff;stop-opacity:0.09803922" />
      <stop
         style="stop-color:#000000;stop-opacity:0.49803922"
         offset="1"
         id="stop925-2" />
    </linearGradient>
    <linearGradient
       inkscape:collect="always"
       xlink:href="#linearGradient926"
       id="linearGradient951"
       gradientUnits="userSpaceOnUse"
       gradientTransform="matrix(0,-0.02997086,-0.02997,0,15.739287,13.625372)"
       x1="512"
       y1="397.99393"
       x2="-1.0000001e-06"
       y2="125.99394" />
    <linearGradient
       id="linearGradient926"
       inkscape:collect="always">
      <stop
         id="stop922"
         offset="0"
         style="stop-color:#0e01d7;stop-opacity:1" />
      <stop
         id="stop924"
         offset="1"
         style="stop-color:#3e32fe;stop-opacity:1" />
    </linearGradient>
  </defs>
  <sodipodi:namedview
     pagecolor="#ffffff"
     bordercolor="#666666"
     borderopacity="1"
     objecttolerance="10"
     gridtolerance="10"
     guidetolerance="10"
     inkscape:pageopacity="0"
     inkscape:pageshadow="2"
     inkscape:window-width="939"
     inkscape:window-height="670"
     id="namedview35"
     showgrid="false"
     inkscape:zoom="4.9166667"
     inkscape:cx="24"
     inkscape:cy="23.617017"
     inkscape:window-x="0"
     inkscape:window-y="27"
     inkscape:window-maximized="0"
     inkscape:current-layer="svg33" />
  <linearGradient
     id="a"
     gradientUnits="userSpaceOnUse"
     x1="344"
     x2="344"
     y1="62"
     y2="106">
    <stop
       offset="0"
       stop-color="#fff"
       id="stop2" />
    <stop
       offset=".125"
       stop-color="#fff"
       stop-opacity=".098039"
       id="stop4" />
    <stop
       offset=".92500001"
       stop-color="#fff"
       stop-opacity=".098039"
       id="stop6" />
    <stop
       offset="1"
       stop-color="#fff"
       stop-opacity=".498039"
       id="stop8" />
  </linearGradient>
  <clipPath
     id="b">
    <path
       d="m335.73108 62c-8.82418 0-9.77365.90635-9.7304 9.74838v12.25162 12.25162c-.0433 8.84203.90622 9.74838 9.7304 9.74838h16.53919c8.82418 0 9.7304-.90625 9.7304-9.74838v-12.25162-12.25162c0-8.84213-.90622-9.74838-9.7304-9.74838z"
       id="path11" />
  </clipPath>
  <linearGradient
     id="c"
     gradientTransform="matrix(0 -.02997086 .02997 0 -3.039509 13.625372)"
     gradientUnits="userSpaceOnUse"
     x1="459.03448"
     x2="35.310345"
     y1="419.23337"
     y2="207.36522">
    <stop
       offset="0"
       stop-color="#f2f2f2"
       id="stop14" />
    <stop
       offset="1"
       stop-color="#f9f9f9"
       id="stop16" />
  </linearGradient>
  <flowRoot
     xml:space="preserve"
     id="flowRoot958"
     style="fill:black;fill-opacity:1;stroke:none;font-family:sans-serif;font-style:normal;font-weight:normal;font-size:40px;line-height:1.25;letter-spacing:0px;word-spacing:0px"><flowRegion
       id="flowRegion960"><rect
         id="rect962"
         width="61.423729"
         height="69.559319"
         x="-5.2881355"
         y="-15.050847" /></flowRegion><flowPara
       id="flowPara964"></flowPara></flowRoot>  <flowRoot
     xml:space="preserve"
     id="flowRoot1371"
     style="fill:black;fill-opacity:1;stroke:none;font-family:sans-serif;font-style:normal;font-weight:normal;font-size:40px;line-height:1.25;letter-spacing:0px;word-spacing:0px"><flowRegion
       id="flowRegion1373"><rect
         id="rect1375"
         width="77.694916"
         height="83.796608"
         x="-11.79661"
         y="-16.677965" /></flowRegion><flowPara
       id="flowPara1377"></flowPara></flowRoot>  <path
     style="color:#000000;font-style:normal;font-variant:normal;font-weight:normal;font-stretch:normal;font-size:medium;line-height:normal;font-family:sans-serif;font-variant-ligatures:normal;font-variant-position:normal;font-variant-caps:normal;font-variant-numeric:normal;font-variant-alternates:normal;font-feature-settings:normal;text-indent:0;text-align:start;text-decoration:none;text-decoration-line:none;text-decoration-style:solid;text-decoration-color:#000000;letter-spacing:normal;word-spacing:normal;text-transform:none;writing-mode:lr-tb;direction:ltr;text-orientation:mixed;dominant-baseline:auto;baseline-shift:baseline;text-anchor:start;white-space:normal;shape-padding:0;clip-rule:nonzero;display:inline;overflow:visible;visibility:visible;opacity:0.1;isolation:auto;mix-blend-mode:normal;color-interpolation:sRGB;color-interpolation-filters:linearRGB;solid-color:#000000;solid-opacity:1;vector-effect:none;fill:#000000;fill-opacity:1;fill-rule:nonzero;stroke:none;stroke-width:0.52914065;stroke-linecap:butt;stroke-linejoin:miter;stroke-miterlimit:4;stroke-dasharray:none;stroke-dashoffset:0;stroke-opacity:1;marker:none;color-rendering:auto;image-rendering:auto;shape-rendering:auto;text-rendering:auto;enable-background:accumulate"
     d="m 4.1621983,0.39685646 c -0.5881821,0 -1.0513178,0.0135407 -1.4323996,0.0775109 C 2.3487143,0.53833624 2.0368758,0.65832284 1.8084511,0.88620814 1.580029,1.1140936 1.459467,1.4257916 1.3960944,1.8070369 1.3327219,2.1882825 1.3203506,2.6524293 1.3232344,3.2420208 v 3.239953 3.2415035 c -0.00286,0.5886857 0.00955,1.0525967 0.07286,1.4334327 0.063373,0.381246 0.1839346,0.692944 0.4123567,0.920829 0.2284247,0.227885 0.5402632,0.347873 0.9213476,0.411841 0.3810845,0.06397 0.8442175,0.07751 1.4323996,0.07751 h 4.3757445 c 0.5881822,0 1.0510744,-0.01352 1.4313674,-0.07751 0.3802938,-0.064 0.6911798,-0.18439 0.9187598,-0.412357 0.227584,-0.227967 0.347434,-0.539443 0.411325,-0.920313 0.06389,-0.380867 0.07751,-0.844073 0.07751,-1.4334327 V 6.4819738 3.2404707 c 0,-0.5893606 -0.01362,-1.0525645 -0.07751,-1.4334338 C 11.235504,1.4261678 11.115654,1.1146926 10.88807,0.88672484 10.66049,0.65875724 10.349604,0.53836404 9.9693102,0.47436734 9.5890172,0.41037044 9.126125,0.39685646 8.5379428,0.39685646 Z"
     id="path1020"
     inkscape:connector-curvature="0"
     sodipodi:nodetypes="sccsccccccsscccscsccsss" />
  <path
     inkscape:connector-curvature="0"
     style="color:#000000;display:inline;overflow:visible;visibility:visible;fill:url(#linearGradient951);fill-opacity:1;fill-rule:nonzero;stroke:none;stroke-width:0.26457033;marker:none;enable-background:accumulate"
     d="m 4.1621983,0.13228614 c -0.5880975,0 -1.0515929,0.0141042 -1.4323996,0.0780276 C 2.3485238,0.2743149 2.0369737,0.39416949 1.8084511,0.62215454 1.5798888,0.85018104 1.4594934,1.1610554 1.3960944,1.5424666 1.3327801,1.9233632 1.3203506,2.3873883 1.3232344,2.9769338 v 3.2404697 3.2415028 c -0.00286,0.5889347 0.00958,1.0528017 0.07286,1.4334337 0.063399,0.381412 0.1837917,0.692285 0.4123567,0.920313 0.2285252,0.227983 0.54007,0.347839 0.9213476,0.411841 0.3808067,0.06392 0.8443021,0.07803 1.4323996,0.07803 h 4.3757445 c 0.5880922,0 1.0508334,-0.01408 1.4308494,-0.07803 0.3804408,-0.06402 0.6914778,-0.183652 0.9192778,-0.411841 0.227724,-0.228107 0.347405,-0.539258 0.411325,-0.920313 0.06386,-0.38069 0.07751,-0.844227 0.07751,-1.4334337 V 6.2174035 2.9759004 c 0,-0.5892071 -0.01365,-1.0527452 -0.07751,-1.4334338 C 11.235475,1.1614123 11.115794,0.85026304 10.88807,0.62215454 10.66027,0.39396762 10.349233,0.27433553 9.9687922,0.21031375 9.5887762,0.14636366 9.126035,0.13228614 8.5379428,0.13228614 Z"
     id="path949" />
  <path
     id="path901"
     d="m 4.162574,0.2645713 c -0.5859201,0 -1.0443173,0.0144588 -1.4106969,0.0759605 C 2.3854975,0.40203278 2.1048677,0.51365024 1.9023577,0.71568434 1.6998476,0.91771844 1.588101,1.1978219 1.5272049,1.5641695 1.4663087,1.9305174 1.453022,2.389204 1.4558953,2.9764171 v 3.2409864 3.2415028 c -0.00286,0.5869057 0.010424,1.0455177 0.07131,1.4117307 0.060896,0.366348 0.17264,0.646451 0.3751527,0.848485 0.2025127,0.202034 0.4831372,0.313651 0.8495195,0.375153 0.3663796,0.0615 0.8247768,0.07596 1.4106969,0.07596 h 4.3757445 c 0.5859174,0 1.0436077,-0.01445 1.4091467,-0.07596 0.3655384,-0.06151 0.6457214,-0.173077 0.8474534,-0.375153 0.201732,-0.202073 0.313211,-0.482325 0.374634,-0.848485 0.06142,-0.36616 0.07545,-0.82463 0.07545,-1.4117307 V 6.2174035 2.9759004 c 0,-0.5871009 -0.01402,-1.0455706 -0.07545,-1.4117309 C 11.108129,1.1980092 10.99665,0.91775864 10.794918,0.71568434 10.593186,0.51361004 10.313003,0.40204575 9.9474652,0.34053182 9.5819262,0.27901816 9.1242359,0.2645713 8.5383185,0.2645713 Z"
     style="color:#000000;display:inline;overflow:visible;visibility:visible;opacity:0.3;fill:none;fill-opacity:1;fill-rule:nonzero;stroke:url(#linearGradient925);stroke-width:0.26457033;stroke-opacity:1;marker:none;enable-background:accumulate"
     inkscape:connector-curvature="0" />
  <path
     sodipodi:nodetypes="cccccccc"
     inkscape:connector-curvature="0"
     id="path981"
     d="M 1.3232344,4.3654113 H 3.93793 L 4.8063556,7.453148 5.954612,3.4004942 6.7784946,5.6221203 7.6046181,3.4004942 8.5778717,6.2174035 h 2.7990343"
     style="display:inline;fill:none;stroke:#ffffff;stroke-width:0.52914065;stroke-linecap:butt;stroke-linejoin:miter;stroke-miterlimit:4;stroke-dasharray:none;stroke-opacity:1;enable-background:new" />
  <path
     style="color:#000000;display:inline;overflow:visible;visibility:visible;opacity:0.07999998;fill:#ffffff;fill-opacity:1;fill-rule:nonzero;stroke:none;stroke-width:0.26457033;marker:none;enable-background:accumulate"
     d="m 1.5878047,6.2174035 v 3.2415028 c -0.011456,2.3393387 0.2397775,2.5790447 2.5743936,2.5790447 h 4.3757445 c 2.3346162,0 2.5743932,-0.23968 2.5743932,-2.5790447 V 6.2174035 Z"
     id="path1006"
     inkscape:connector-curvature="0" />
  <path
     style="color:#000000;display:inline;overflow:visible;visibility:visible;opacity:0.07999998;fill:#ffffff;fill-opacity:1;fill-rule:nonzero;stroke:none;stroke-width:0.26457033;marker:none;enable-background:accumulate"
     d="M 6.3500706,0.39685646 V 12.037951 h 2.1878722 c 2.3346162,0 2.5743932,-0.23968 2.5743932,-2.5790447 V 6.2174035 2.9759004 c 0,-2.33936516 -0.239777,-2.57904394 -2.5743932,-2.57904394 z"
     id="path1013"
     inkscape:connector-curvature="0" />
  <g
     aria-label="vhd"
     style="font-style:normal;font-variant:normal;font-weight:normal;font-stretch:normal;font-size:2.46932292px;line-height:1.25;font-family:Ubuntu;-inkscape-font-specification:'Ubuntu, Normal';font-variant-ligatures:normal;font-variant-caps:normal;font-variant-numeric:normal;font-feature-settings:normal;text-align:start;letter-spacing:0px;word-spacing:0px;writing-mode:lr-tb;text-anchor:start;display:inline;fill:#ffffff;fill-opacity:1;stroke:none;stroke-width:0.26457033;enable-background:new"
     id="text930">
    <path
       d="M 5.5769859,9.4462187 Q 5.4806823,9.8067398 5.3498082,10.137629 5.2214034,10.468518 5.1004066,10.730267 H 4.8929834 Q 4.7719866,10.468518 4.6411125,10.137629 4.5127077,9.8067398 4.4164041,9.4462187 h 0.2469323 q 0.029632,0.1209968 0.069141,0.2592789 0.041978,0.1358127 0.086426,0.2716255 0.046917,0.1333439 0.093834,0.2592789 0.046917,0.125935 0.088896,0.224708 0.041978,-0.09877 0.088896,-0.224708 0.046917,-0.125935 0.091365,-0.2592789 0.046917,-0.1358128 0.086426,-0.2716255 0.041978,-0.1382821 0.07161,-0.2592789 z"
       style="stroke-width:0.26457033"
       id="path1637" />
    <path
       d="M 5.8140382,10.730267 V 8.8535812 L 6.0436853,8.814072 v 0.6568399 q 0.064202,-0.024693 0.1358127,-0.03704 0.07408,-0.014816 0.1456901,-0.014816 0.153098,0 0.2543402,0.044448 0.1012423,0.041979 0.160506,0.1209968 0.061733,0.076549 0.086426,0.1851993 0.024693,0.1086502 0.024693,0.239524 v 0.721043 H 6.6215068 v -0.671656 q 0,-0.1185278 -0.017285,-0.2024847 -0.014816,-0.083957 -0.051856,-0.1358128 -0.03704,-0.051856 -0.098773,-0.07408 -0.061733,-0.024693 -0.1530981,-0.024693 -0.03704,0 -0.076549,0.00494 -0.039509,0.00494 -0.076549,0.012347 -0.034571,0.00494 -0.064202,0.012347 -0.027163,0.00741 -0.039509,0.012347 v 1.0667479 z"
       style="stroke-width:0.26457033"
       id="path1639" />
    <path
       d="m 8.0537119,9.7178442 q -0.041978,-0.03457 -0.1209969,-0.066672 -0.079018,-0.032101 -0.1728526,-0.032101 -0.098773,0 -0.1703833,0.03704 -0.069141,0.03457 -0.1135888,0.098773 -0.044448,0.061733 -0.064202,0.1481594 -0.019755,0.086426 -0.019755,0.1851996 0,0.224708 0.1111195,0.348174 0.1111196,0.120997 0.2963188,0.120997 0.093834,0 0.1555673,-0.0074 0.064202,-0.0099 0.098773,-0.01975 z m 0,-0.864263 0.229647,-0.039509 v 1.879155 q -0.079018,0.02222 -0.2024845,0.04445 -0.1234661,0.02222 -0.2839721,0.02222 -0.1481594,0 -0.2666869,-0.04692 -0.1185275,-0.04692 -0.2024845,-0.133343 -0.083957,-0.08643 -0.1308741,-0.209893 -0.044448,-0.125935 -0.044448,-0.281502 0,-0.1481598 0.03704,-0.2716259 0.039509,-0.1234662 0.1135889,-0.2123618 0.07408,-0.088896 0.1802606,-0.1382821 0.1086502,-0.049386 0.2469323,-0.049386 0.1111195,0 0.1950765,0.029632 0.086426,0.029632 0.1284048,0.056794 z"
       style="stroke-width:0.26457033"
       id="path1641" />
  </g>
</svg>
